X: 10
T: Tambur tambur
N: Derived from Ano3002-Tambur_tambur--Cortona__Paris.krn
C: Anonymous
%%abc-version 2.0
%%abcx-abcm2ps-target-version 5.9.1 (29 Sep 2008)
%%abc-creator hum2abc beta
%%abcx-conversion-date 2019/02/16 20:18:26
%%abc-edited-by Jesse Rodin
%%abc-edited-by Jesse Rodin 8/14/2013
%%abcx-initial-encoding-date 2013/08/14/
%%humdrum-veritas 3336822224
%%humdrum-veritas-data 3878600174
%%linebreak <none>
%%barnumbers 0
L: 1/4
M: 2/1
Q: 1/2=120
%%staves [1 2 3 4]
V: 1 clef=treble
V: 2 clef=treble-8
V: 3 clef=treble-8
V: 4 clef=bass
K: F
[V:1] z8 | 
[V:2] z4c4 | 
[V:3] z8 | 
[V:4] z8 | 
[V:1] z4F4 | 
[V:2] d4d4 | 
[V:3] z8 | 
[V:4] z8 | 
[V:1] G4G4 | 
[V:2] c4z2c2- | 
[V:3] z8 | 
[V:4] z4C,4 | 
[V:1] F4z2F2- | 
[V:2] c2BAB4 | 
[V:3] z4F4 | 
[V:4] D,4D,4 | 
[V:1] F2EDE4 | 
[V:2] c4z2c2 | 
[V:3] G4G4 | 
[V:4] C,8 | 
[V:1] F4z2F2 | 
[V:2] d2d2d2d2 | 
[V:3] F8 | 
[V:4] z8 | 
[V:1] G2G2G2G2 | 
[V:2] c2e4dc | 
[V:3] z8 | 
[V:4] z4C,4 | 
[V:1] F2A4GF | 
[V:2] B2c4B2 | 
[V:3] z4F4 | 
[V:4] D,2D,2D,2D,2 | 
[V:1] E2F4E2 | 
[V:2] c8 | 
[V:3] G2G2G2G2 | 
[V:4] C,4z2C,2 | 
[V:1] F8 | 
[V:2] z4c4 | 
[V:3] F4z2F2 | 
[V:4] D,2F,3E,D,C, | 
[V:1] z8 | 
[V:2] d6e2 | 
[V:3] B6c2 | 
[V:4] B,,2B,4A,G, | 
[V:1] z8 | 
[V:2] f4f4 | 
[V:3] d2cBA4 | 
[V:4] F,2D,3E,F,2 | 
[V:1] z8 | 
[V:2] g8 | 
[V:3] G3ABGc2- | 
[V:4] E,2C,2G,3F, | 
[V:1] z4F4 | 
[V:2] g4f4 | 
[V:3] c2BAB4 | 
[V:4] E,4D,4 | 
[V:1] G6A2 | 
[V:2] e4c4 | 
[V:3] z2c3def | 
[V:4] C,4z2C,2 | 
[V:1] B4B4 | 
[V:2] d4d4 | 
[V:3] g3ag4 | 
[V:4] G,4G,4 | 
[V:1] c8 | 
[V:2] c4z2c2- | 
[V:3] e2g3fed | 
[V:4] A,2G,F,E,2C,2 | 
[V:1] c4B4 | 
[V:2] cdefg4 | 
[V:3] c2f4e2 | 
[V:4] A,4G,4 | 
[V:1] A4F4 | 
[V:2] f2a4gf | 
[V:3] f4d4 | 
[V:4] F,4z4 | 
[V:1] G4G4 | 
[V:2] e2f4e2 | 
[V:3] c8 | 
[V:4] z4C,4 | 
[V:1] F6G2 | 
[V:2] f6e2 | 
[V:3] F8 | 
[V:4] D,6E,2 | 
[V:1] A2A3GFE | 
[V:2] d2cBc4 | 
[V:3] z8 | 
[V:4] F,4F,4 | 
[V:1] D4z2D2- | 
[V:2] B2d3cBA | 
[V:3] z8 | 
[V:4] G,8 | 
[V:1] D2E2F2D2 | 
[V:2] G4A4 | 
[V:3] z4F4 | 
[V:4] G,4F,4 | 
[V:1] E3DEFG2- | 
[V:2] B2c3de2 | 
[V:3] G6A2 | 
[V:4] E,4C,4 | 
[V:1] G2FEF4 | 
[V:2] d3cd4 | 
[V:3] B4B4 | 
[V:4] D,4D,4 | 
[V:1] E4C3D | 
[V:2] G4z2g2- | 
[V:3] c8 | 
[V:4] C,4z2C,2- | 
[V:1] EFG3ABA/B/ | 
[V:2] gfede2d2- | 
[V:3] c4B4 | 
[V:4] C,D,E,F,G,4 | 
[V:1] c2A2BAGF | 
[V:2] d2c4B2 | 
[V:3] A4F4 | 
[V:4] A,2F,3E,D,2 | 
[V:1] E2F4E2 | 
[V:2] c8 | 
[V:3] G4G4 | 
[V:4] C,3B,,C,4 | 
[V:1] F8- | 
[V:2] z4c4 | 
[V:3] F8 | 
[V:4] F,2F,3E,D,C, | 
[V:1] F8 | 
[V:2] d4d4 | 
[V:3] z2B3cd2 | 
[V:4] B,,4B,,4 | 
[V:1] z8 | 
[V:2] e4e4 | 
[V:3] c2BAG4 | 
[V:4] C,4C,4 | 
[V:1] z4F4 | 
[V:2] f4fedc | 
[V:3] F8 | 
[V:4] D,8 | 
[V:1] G4G4 | 
[V:2] B2c3d_e2 | 
[V:3] z8 | 
[V:4] z8 | 
[V:1] A4A4 | 
[V:2] d2cBc4 | 
[V:3] z4F4 | 
[V:4] z8 | 
[V:1] B6AG | 
[V:2] B8 | 
[V:3] G4G4 | 
[V:4] z8 | 
[V:1] F4z4 | 
[V:2] z4c4 | 
[V:3] A4A4 | 
[V:4] z8 | 
[V:1] z8 | 
[V:2] d6d2 | 
[V:3] B4z2B2 | 
[V:4] z8 | 
[V:1] z8 | 
[V:2] e4e4 | 
[V:3] A2GFc4 | 
[V:4] z4C,4 | 
[V:1] z4F4 | 
[V:2] f4fedc | 
[V:3] F8 | 
[V:4] D,6D,2 | 
[V:1] G6G2 | 
[V:2] B2c3def | 
[V:3] z8 | 
[V:4] E,4E,4 | 
[V:1] A4A4 | 
[V:2] d2cBc4 | 
[V:3] z4F4 | 
[V:4] F,8 | 
[V:1] B6AG | 
[V:2] B8 | 
[V:3] G6G2 | 
[V:4] z8 | 
[V:1] F4z4 | 
[V:2] z8 | 
[V:3] A4A4 | 
[V:4] z4C,4 | 
[V:1] z8 | 
[V:2] z4f4 | 
[V:3] B8 | 
[V:4] D,6D,2 | 
[V:1] z4B4 | 
[V:2] g4g4 | 
[V:3] z8 | 
[V:4] E,2F,2G,4 | 
[V:1] c6BA | 
[V:2] a4a4 | 
[V:3] z8 | 
[V:4] z4F,4 | 
[V:1] d4d4 | 
[V:2] g4d2g2- | 
[V:3] z4B4 | 
[V:4] G,4G,4 | 
[V:1] c3BAGc2- | 
[V:2] g2fef4 | 
[V:3] c4c4 | 
[V:4] A,4A,4 | 
[V:1] c2=BA=B4 | 
[V:2] g8 | 
[V:3] d4d4 | 
[V:4] G,8 | 
[V:1] c8 | 
[V:2] e4f4 | 
[V:3] c6BA | 
[V:4] z8 | 
[V:1] z4B4 | 
[V:2] g8 | 
[V:3] G8 | 
[V:4] z8 | 
[V:1] A6F2 | 
[V:2] z4f4 | 
[V:3] z2F3GAF | 
[V:4] z8 | 
[V:1] G4G4 | 
[V:2] e6c2 | 
[V:3] c8 | 
[V:4] z8 | 
[V:1] F4z2B2 | 
[V:2] d4d4 | 
[V:3] z4B4 | 
[V:4] z2B,,3C,D,B,, | 
[V:1] cBAGF2G2- | 
[V:2] c2f4_e2- | 
[V:3] A6GF | 
[V:4] F,3E,D,2_E,2 | 
[V:1] GFEDE4 | 
[V:2] edcBc4 | 
[V:3] G4G4 | 
[V:4] C,4C,4 | 
[V:1] F8 | 
[V:2] z4c4 | 
[V:3] F8- | 
[V:4] z8 | 
[V:1] z4F4 | 
[V:2] d4d4 | 
[V:3] F8 | 
[V:4] z8 | 
[V:1] G4G4 | 
[V:2] c4z2c2- | 
[V:3] z8 | 
[V:4] z4C,4 | 
[V:1] F4z2F2- | 
[V:2] c2BAB4 | 
[V:3] z4F4 | 
[V:4] D,4D,4 | 
[V:1] F2EDE4 | 
[V:2] c4z2c2 | 
[V:3] G4G4 | 
[V:4] C,8 | 
[V:1] F4z2F2 | 
[V:2] d2d2d2d2 | 
[V:3] F8 | 
[V:4] z8 | 
[V:1] G2G2G2G2 | 
[V:2] c2e4dc | 
[V:3] z8 | 
[V:4] z4C,4 | 
[V:1] F2A4GF | 
[V:2] B2c4B2 | 
[V:3] z4F4 | 
[V:4] D,2D,2D,2D,2 | 
[V:1] E2F4E2 | 
[V:2] c8 | 
[V:3] G2G2G2G2 | 
[V:4] C,4z2C,2 | 
[V:1] F8 | 
[V:2] z4c4 | 
[V:3] F4z2F2 | 
[V:4] D,2F,3E,D,C, | 
[V:1] z8 | 
[V:2] d6e2 | 
[V:3] B6c2 | 
[V:4] B,,2B,4A,G, | 
[V:1] z8 | 
[V:2] f4f4 | 
[V:3] d2cBA4 | 
[V:4] F,2D,3E,F,2 | 
[V:1] z8 | 
[V:2] g8 | 
[V:3] G3ABGc2- | 
[V:4] E,2C,2G,3F, | 
[V:1] z4F4 | 
[V:2] g4f4 | 
[V:3] c2BAB4 | 
[V:4] E,4D,4 | 
[V:1] G6A2 | 
[V:2] e4c4 | 
[V:3] z2c3def | 
[V:4] C,4z2C,2 | 
[V:1] B4B4 | 
[V:2] d4d4 | 
[V:3] g3ag2g2 | 
[V:4] G,4G,4 | 
[V:1] c8 | 
[V:2] c4z2c2 | 
[V:3] e2g3fed | 
[V:4] A,2G,F,E,2C,2 | 
[V:1] c4B4 | 
[V:2] e2f2g4 | 
[V:3] c2f4e2 | 
[V:4] A,4G,4 | 
[V:1] A4F4 | 
[V:2] f2a4gf | 
[V:3] f2F3GAF | 
[V:4] F,4z4 | 
[V:1] G4G4 | 
[V:2] e2f4e2 | 
[V:3] c2B2c4 | 
[V:4] z4C,4 | 
[V:1] F6G2 | 
[V:2] f6e2 | 
[V:3] F8 | 
[V:4] D,6E,2 | 
[V:1] A2A3GFE | 
[V:2] d2cBc4 | 
[V:3] z8 | 
[V:4] F,4F,4 | 
[V:1] D4z2D2- | 
[V:2] B2d3cBA | 
[V:3] z8 | 
[V:4] G,8 | 
[V:1] D2E2F2D2 | 
[V:2] G4A4 | 
[V:3] z4F4 | 
[V:4] G,4F,4 | 
[V:1] E3DEFG2- | 
[V:2] B2c3de2 | 
[V:3] G6A2 | 
[V:4] E,4C,4 | 
[V:1] G2FEF4 | 
[V:2] d3cd4 | 
[V:3] B4B4 | 
[V:4] D,4D,4 | 
[V:1] E4C3D | 
[V:2] G2c3def | 
[V:3] c8 | 
[V:4] C,4z2C,2- | 
[V:1] EFG3ABA/B/ | 
[V:2] gfede2d2- | 
[V:3] c4B4 | 
[V:4] C,D,E,F,G,4 | 
[V:1] c2A2BAGF | 
[V:2] d2c4B2 | 
[V:3] A4F4 | 
[V:4] A,2F,3E,D,2 | 
[V:1] E2F4E2 | 
[V:2] c8- | 
[V:3] G4G4 | 
[V:4] C,3B,,C,4 | 
[V:1] F8 | 
[V:2] c8- | 
[V:3] F8- | 
[V:4] F,8- | 
[V:1] F8 |]  
[V:2] c8 |]  
[V:3] F8 |]  
[V:4] F,8 |]  



